X: 100324
T: THE EWIE WI' THE CROOKED HORN -- Strathspey
R: strathspey
B: K\"ohler's Violin Repository, v.3, 1885 p.230 #3
F: http://www.archive.org/details/klersviolinrepos03rugg
Z: 2012 John Chambers <jc:trillian.mit.edu>
M: C|
L: 1/8
K: Gm
uF |\
D<G(G>A) (F>G){FG}A>F | C<G(G>A) (B>G)A<a |\
f>ed<f c<fA>F | A<fd>B ({AB}c>A)G2 :|
G<g(g>a) (f>g) {fg}a>f | d>g(g>a) {fg}(b>g)a>^f |\
d<g(g>a) (=f>g) {fg}a>f | d(g/a/ b>g) (a>^f)g2 |
=f>ed<f c<fA>F | D<G(G>A) (B>G)A>a |\
{fg}(.a>.g) (f>d) {AB}(.c>.B) (A>F) | A<f d>B {AB}(c>A) "_Segue Reel"A2 "^D.C."|]

%%sep 2 1 500

